!!!COM: Joplin, Scott
!!!CDT: 1868/11/24/-1917/04/01/
!!!OTL: Wall Street Rag
!!!ODT: 1909///
!!!OMD: Very Slow March Time
!!!PPR: Seminary Music Co.
!!!PPP: 112 W. 38th St., New York, New York
!!!PDT: 1909///
**kern	**kern	**dynam
*staff2	*staff1	*staff1/2
*Ipiano	*Ipiano	*Ipiano
*>[I,A,A1,A,A2,B,B1,B,B2,C,C1,C,C2,D,D1,D,D2]	*>[I,A,A1,A,A2,B,B1,B,B2,C,C1,C,C2,D,D1,D,D2]	*>[I,A,A1,A,A2,B,B1,B,B2,C,C1,C,C2,D,D1,D,D2]
*>norep[I,A,A2,B,B2,C,C2,D,D2]	*>norep[I,A,A2,B,B2,C,C2,D,D2]	*>norep[I,A,A2,B,B2,C,C2,D,D2]
*>I	*>I	*>I
*clefF4	*clefG2	*clefG2
*k[]	*k[]	*k[]
*M2/4	*M2/4	*M2/4
*MM92	*MM92	*MM92
=1-	=1-	=1-
8.c\L	8.cc\L	mf
16A\Jk	16a\Jk	.
8D\L	8d/L	.
16C\L	16c/L	.
16D\JJ	16d/JJ	.
=2	=2	=2
8E\	8e/	.
4F\	4f/	.
8G\	8g/	.
=3	=3	=3
8E\L	8e/L	.
16D\L	16d/L	.
16E\JJ	16e/JJ	.
16F\LK	16f/LK	.
8A\	8a/	.
16A-\Jk	16a-/Jk	.
=4	=4	=4
4G\	4g/	.
8GG^/ 8G^/	8g^\ 8b^\ 8gg^\	.
8r	8r	.
=5!|:	=5!|:	=5!|:
!! Panic in Wall Street, Brokers feeling melancholy.
*>A	*>A	*>A
*^	*	*
(8.G/L	2C\	16c/ (16e/LL	mf
.	.	16d/ 16f/	.
.	.	16e/ 16g/	.
16F#/Jk	.	[16d#/ [16a/JJ)	.
8c/L	.	16d#/] (16a/LL]	.
.	.	16f#/ 16dd#/	.
8G/J)	.	16g/ 16ee/	.
.	.	16e/ 16cc/JJ)	.
=6	=6	=6	=6
*	*	*^	*
4.A-/	2C\	8dd/L	[4f\	.
.	.	16dd/L	.	.
.	.	16ee/JJ	.	.
.	.	(16dd/LL	8f\L]	.
.	.	16cc/	.	.
8A-/	.	16d/	8c\J	.
.	.	16f/JJ)	.	.
*	*	*v	*v	*
=7	=7	=7	=7
(8.G/L	2C\	16c/ (16e/LL	.
.	.	16d/ 16f/	.
.	.	16e/ 16g/	.
16F#/Jk	.	[16d#/ [16a/JJ)	.
8c/L	.	16d#/] (16a/LL]	.
.	.	16f#/ 16dd#/	.
8G/J)	.	16g/ 16ee/	.
.	.	16e/ 16cc/JJ)	.
*v	*v	*	*
=8	=8	=8
*	*^	*
4.C\ 4.A-\	8dd/L	[4f\	.
.	16ee/L	.	.
.	16dd/JJ	.	.
.	(16cc/LL	8f\L]	.
.	16dd/	.	.
8C\ 8G\	16ee/	8e\J	.
.	16g/JJ)	.	.
=9	=9	=9	=9
8BB\ 8B\L	(16g#/LL	8.e\L	.
.	16e/	.	.
8G#\ 8d\ 8e\J	16b/	.	.
.	[16ee/JJ)	[16g#\Jk	.
8EE/ 8E/L	(16ee/LL]	8g#\L]	.
.	16ff/J	.	.
8DD/ 8D/J	8ee/J)	8g#\J	.
=10	=10	=10	=10
8CC\ 8C\L	(16a/LL	8.e\L	.
.	16e/	.	.
8A\ 8c\ 8e\J	16cc/	.	.
.	[16ee/JJ)	[16a\ [16cc\Jk	.
8AA\ 8A\L	(16ee/LL]	8a\] 8cc\L]	.
.	16ff/J	.	.
8GG\ 8G\J	8ee/J)	8a\ 8cc\J	.
=11	=11	=11	=11
8FF#\ 8F#\L	(16ee/LL	8.cc\L	<
.	16dd/	.	.
8F#\ 8c\ 8d\J	16ff#/	.	.
.	[16bb/JJ	[16dd\ [16ff#\Jk)	.
8DD\ 8D\L	4r	16dd\] 16ff#\] (16bb\LL]	.
.	.	16ee\ 16ff#\ 16ccc\	.
8F#\ 8c\ 8d\J	.	16dd\ 16ff#\ 16bb\	.
.	.	16cc\ 16ff#\ 16aa\JJ)	.
*	*v	*v	*
=12	=12	=12
8GG\ 8G\L	16b\ 16ffn\ (16aa\LL	.
.	16gg\	.
8G\ 8B\ 8d\J	16ff\	.
.	16dd\JJ	>
8BB\L	16f\ 16g\ 16ee\LL	.
.	16dd\	.
8G\ 8B\ 8d\J	16g\	.
.	16f\JJ)	.
=13	=13	=13
*^	*	*
(8.G/L	2C\	16c/ (16e/LL	mf
.	.	16d/ 16f/	.
.	.	16e/ 16g/	.
16F#/Jk	.	[16d#/ [16a/JJ)	.
8c/L	.	16d#/] (16a/LL]	.
.	.	16f#/ 16dd#/	.
8G/J)	.	16g/ 16ee/	.
.	.	16e/ 16cc/JJ)	.
=14	=14	=14	=14
*	*	*^	*
4.A-/	2C\	8dd/L	[4f\	.
.	.	16dd/L	.	.
.	.	16ee/JJ	.	.
.	.	(16dd/LL	8f\L]	.
.	.	16cc/	.	.
8A-/	.	16d/	8c\J	.
.	.	16f/JJ)	.	.
*	*	*v	*v	*
=15	=15	=15	=15
(8.G/L	2C\	16c/ (16e/LL	.
.	.	16d/ 16f/	.
.	.	16e/ 16g/	.
16F#/Jk	.	[16d#/ [16a/JJ)	.
8c/L	.	16d#/] (16a/LL]	.
.	.	16f#/ 16dd#/	.
8G/J)	.	16g/ 16ee/	.
.	.	16e/ 16cc/JJ)	.
=16	=16	=16	=16
*	*	*^	*
4.A-/	2C\	8dd/L	[4f\	.
.	.	16cc/L	.	.
.	.	16dd/JJ	.	.
.	.	8cc/L	8f\L]	.
8A-/	.	16cc/L	8f\J	.
.	.	16dd/JJ	.	.
=17	=17	=17	=17	=17
8G/L	4C\	(16ee/LL	8.e\L	.
.	.	16cc/	.	.
8B-/J	.	16g/	.	.
.	.	[16a/JJ	[16c#\Jk	.
4r	8AA\ 8A\L	16c#/] 16a/LL])	4r	.
.	.	16a/ 16cc#/ 16ee/ 16aa/	.	.
.	8GG\ 8G\J	16b-/ 16cc#/ 16ee/ 16bb-/	.	.
.	.	16a/ 16cc#/ 16ee/ 16aa/JJ	.	.
*v	*v	*	*	*
*	*v	*v	*
=18	=18	=18
8FF#\ 8F#\L	8ee\ 8ff#\ 8cccn\ 8eee\L	.
8F#\ 8c\ 8d\J	16dd\ 16ff#\ 16ccc\ 16ddd\L	.
.	[16a\ [16cc\ [16ff#\ [16aa\JJ	.
8D\ 8d\L	16a\] 16cc\] 16ff#\] (16aa\LL]	.
.	16g#\ 16gg#\	.
8C\ 8c\J	16a\ 16ff#\ 16aa\	.
.	16cc\ 16ff#\ 16ccc\JJ)	.
=19	=19	=19
8BB\ 8B\L	8ee\ 8gg\ 8eee\L	.
8G\ 8B\ 8fn\J	16dd\ 16ffn\ 16ddd\L	.
.	[16aa\ [16fff\ [16aaa\JJ	.
8GG\ 8G\L	16aa\] 16fff\] (16aaa\LL]	.
.	16gg\ 16eee\ 16ggg\	.
8G\ 8B\ 8f\J	16ee\ 16gg\ 16eee\	.
.	16dd\ 16ff\ 16ddd\JJ)	.
=20	=20	=20
*>A1	*>A1	*>A1
8C\ 8c\L	[4cc\ [4ee\ [4ccc\	.
8G\J	.	.
8C\L	16cc\] 16ee\] 16ccc\LL]	.
.	(16g\	.
8G\ 8B\J	16d\	.
.	16d#\JJ)	.
=21:|!	=21:|!	=21:|!
*>A2	*>A2	*>A2
*	*^	*
8C\ 8c\L	4.r	[4cc\ [4ee\ [4ccc\	.
8G\J	.	.	.
4C/	.	8cc\] 8ee\] 8ccc\L]	.
.	8ee/	16cc\ 16ccc\L	.
.	.	16b-\ 16bb-\JJ	.
*	*v	*v	*
=22!|:	=22!|:	=22!|:
!! Good times coming.
*>B	*>B	*>B
8FF\ 8F\L	8a\ 8cc\ 8ff\ 8aa\L	f
8A\ 8c\ 8f\J	8a\ 8cc\ 8ff\ 8aa\J	.
8FF/ 8F/L	8cc\ 8ff\ 8aa\ 8ccc\L	.
8DD#/ 8D#/J	8cc\ 8ff#\ 8aa\ 8ccc\J	.
=23	=23	=23
*^	*^	*
8E/L	4EE\ 4E\	4r	4cc\ 4gg\ 4ccc\	.
8G/ 8c/ 8e/J	.	.	.	.
8E-/L	4EE-\ 4E-\	(8bb/L	4cc\ 4ff#\	.
8c/ 8e-/ 8f#/J	.	8aa/J)	.	.
=24	=24	=24	=24	=24
8D/L	4DD\ 4D\	8.aa/L	4cc\ 4ffn\	.
8c/ 8d/ 8fn/J	.	.	.	.
.	.	16aa/Jk	.	.
8GG/L	4GGG\ 4GG\	(16aa/LL	4b\ 4ff\	.
.	.	16gg/	.	.
8B/ 8d/ 8f/J	.	16bb/	.	.
.	.	16aa/JJ)	.	.
=25	=25	=25	=25	=25
8C/L	4CC\ 4C\	8.aa/L	4cc\ 4ee\	.
8G/ 8c/ 8e/J	.	.	.	.
.	.	16aa/Jk	.	.
8EE/ 8E/L	4r	(16aa/LL	8cc\ 8ee\L	.
.	.	16gg/	.	.
8CC/ 8C/J	.	16cc/ 16ccc/)	8ee\J	.
.	.	16b/ 16bb-/JJ	.	.
*v	*v	*	*	*
*	*v	*v	*
=26	=26	=26
8FF\ 8F\L	8a\ 8cc\ 8ff\ 8aa\L	.
8A\ 8c\ 8f\J	8a\ 8cc\ 8ff\ 8aa\J	.
8FF/ 8F/L	8cc\ 8ff\ 8aa\ 8ccc\L	.
8DD#/ 8D#/J	8cc\ 8ff#\ 8aa\ 8ccc\J	.
=27	=27	=27
*^	*^	*
8E/L	4EE\ 4E\	4r	4cc\ 4gg\ 4ccc\	.
8G/ 8c/ 8e/J	.	.	.	.
8E-/L	4EE-\ 4E-\	(8bb/L	4cc\ 4ff#\	.
8c/ 8e-/ 8f#/J	.	8aa/J)	.	.
=28	=28	=28	=28	=28
4r	8DD/ 8D/L	4r	8cc\ 8ffn\ 8aa\L	.
.	8EE/ 8E/J	.	8cc\ 8ee\ 8aa\J	.
8E/L	4EE\ 4E\	(8.gg#/L	4dd\ 4ee\	.
8G#/ 8d/ 8e/J	.	.	.	.
.	.	16bb/Jk)	.	.
*v	*v	*	*	*
=29	=29	=29	=29
16AA\ 16A\LL	4r	4cc\ 4ee\ 4aa\	.
16E\	.	.	.
16C\	.	.	.
16AA\JJ	.	.	.
4CC/ 4C/	(16aa/LL	8cc\ 8ee\L	.
.	16gg/	.	.
.	16cc/ 16ccc/)	8ee\J	.
.	16b-/JJ	.	.
*	*v	*v	*
=30	=30	=30
8FF\ 8F\L	8a\ 8cc\ 8ff\ 8aa\L	.
8A\ 8c\ 8f\J	8a\ 8cc\ 8ff\ 8aa\J	.
8FF/ 8F/L	8cc\ 8ff\ 8aa\ 8ccc\L	.
8DD#/ 8D#/J	8cc\ 8ff#\ 8aa\ 8ccc\J	.
=31	=31	=31
*^	*^	*
8E/L	4EE\ 4E\	4r	4cc\ 4gg\ 4ccc\	.
8G/ 8c/ 8e/J	.	.	.	.
8E-/L	4EE-\ 4E-\	(8bb/L	4cc\ 4ff#\	.
8c/ 8e-/ 8f#/J	.	8aa/J)	.	.
=32	=32	=32	=32	=32
8D/L	4DD\ 4D\	8.aa/L	4cc\ 4ffn\	.
8c/ 8d/ 8fn/J	.	.	.	.
.	.	16aa/Jk	.	.
8GG/L	4GGG\ 4GG\	(16aa/LL	4b\ 4ff\	.
.	.	16gg/	.	.
8B/ 8d/ 8f/J	.	16bb/	.	.
.	.	16aa/JJ)	.	.
=33	=33	=33	=33	=33
8C/L	4CC\ 4C\	8.aa/L	4cc\ 4ee\	.
8G/ 8c/ 8e/J	.	.	.	.
.	.	16aa/Jk	.	.
8E/L	4EE\ 4E\	(16aa/LL	8cc\ 8ee\	.
.	.	16gg/	.	.
8E/ 8G/J	.	16c/ 16cc/)	8r	.
.	.	16d/ 16dd/JJ	.	.
*v	*v	*	*	*
*	*v	*v	*
=34	=34	=34
(16FF#/LL	4d#/ 4a/ 4cc/ 4dd#/	.
16AA/J	.	.
(8F#/J)	.	.
16D#\LL	4f#\ 4a\ 4cc\ 4ff#\	.
16F#\J	.	.
8d#\J)	.	.
=35	=35	=35
(16f#\LL	2a\ 2cc\ 2dd#\ 2aa\	.
16d#\	.	.
16c\	.	.
16A\JJ	.	.
16d#\LL	.	.
16c\	.	.
16A\	.	.
16F#\JJ)	.	.
=36	=36	=36
*^	*^	*
8G/L	4G\	8a/ (8aa/L	4cc\ 4ee\	.
8c/ 8e/J	.	8g/ 8gg/J)	.	.
8GG/L	4GG\	(16ee/LK	16g\ 16b\LK	.
.	.	8dd/	8.f\ 8.b\J	.
8G/J	.	.	.	.
.	.	16ee/Jk)	.	.
*v	*v	*	*	*
*	*v	*v	*
=37	=37	=37
*>B1	*>B1	*>B1
8C\ 8G\	8e\ 8cc\L	.
8r	16e\ 16ee\L	.
.	16f\ 16ff\JJ	.
8r	16f#\ 16ff#\LL	.
.	16g\ 16gg\	.
8CC/ 8C/	16cc\ 16ee\ 16ccc\	.
.	16b-\ 16ee\ 16bb-\JJ	.
=38:|!	=38:|!	=38:|!
*>B2	*>B2	*>B2
*^	*^	*
[4G/	8C\L	[4e/ [4cc/	4.r	.
.	8GG\J	.	.	.
8G/]	4CC\	8e/] 8cc/]	.	.
8r	.	(16g/LL	8B-\ 8e\	.
.	.	16g#/JJ)	.	.
*v	*v	*	*	*
*	*v	*v	*
=39	=39	=39
!! Good times have come.
*>C	*>C	*>C
*k[b-]	*k[b-]	*k[b-]
*^	*	*
8C/ 8A/L	4FF\	16f/ 16a/LL	mp
.	.	16g/ 16b-/	.
8C/ 8F/ 8A/J	.	16a/ 16cc/	.
.	.	[16f/ [16a/JJ	.
8CC/L	4CC\	16f/] (16a/LL]	.
.	.	16c/ 16f/ 16a/J	.
8C/ 8F/J	.	8d/ 8f/ 8a/J)	.
=40	=40	=40	=40
8FF/L	4FF\	16f/ 16a/LL	.
.	.	16c/ 16f/ 16a/	.
8C/ 8F/J	.	16c#/ 16f/ 16a/	.
.	.	[16d/ [16f/ [16a/JJ	.
8CC/L	4CC\	16d/] 16f/] 16a/LK]	.
.	.	8e-/ 8f/ 8a/	.
8C/ 8F/J	.	.	.
.	.	[16d/ 16f/ [16a/Jk	.
*v	*v	*	*
=41	=41	=41
*	*^	*
(8BBB-/L	16f/ (16a/LL]	8.d\L]	.
.	16g/	.	.
8BB-/J)	16f/	.	.
.	[16f/ [16g/JJ)	16d-\Jk	.
(8BBB-/L	16d-/ 16f/] (16g/LL]	4r	.
.	16F/ 16d-/	.	.
8BB-/J)	16G/ 16d-/	.	.
.	[16A/ [16c/JJ)	.	.
=42	=42	=42	=42
*^	*	*	*
8FF/L	4FF\	16r	4A\_ 4c\_	.
.	.	16ff/ 16aa/LL	.	.
8C/ 8F/ 8A/J	.	16ee/ 16aa/	.	.
.	.	[16dd/ [16aa/JJ	.	.
8CC/L	4CC\	16dd/] 16aa/]	16A\] 16c\LL]	.
.	.	16r	16b-\ 16dd\	.
8C/ 8E/ 8B-/J	.	8r	16a\ 16cc\	.
.	.	.	16g\ 16b-\JJ	.
*	*	*v	*v	*
=43	=43	=43	=43
8C/ 8A/L	4FF\	16f/ 16a/LL	.
.	.	16g/ 16b-/	.
8C/ 8F/ 8A/J	.	16a/ 16cc/	.
.	.	[16f/ [16a/JJ	.
8CC/L	4CC\	16f/] (16a/LL]	.
.	.	16c/ 16f/ 16a/J	.
8C/ 8F/J	.	8d/ 8f/ 8a/J)	.
=44	=44	=44	=44
8FF/L	(4FF\	16f/ 16a/LL	.
.	.	16c/ 16f/ 16a/	.
8F/J)	.	16c#/ 16f/ 16a/	.
.	.	[16d/ [16f/ [16a/JJ	.
8FF#/L	(4FF#\	16d/] 16f/] 16a/LK]	.
.	.	8cn/ 8d#/ 8a/	.
8F#/J)	.	.	.
.	.	[16c/ [16e/ [16a/Jk	.
=45	=45	=45	=45
*	*	*^	*
8GG/L	(4GG\	(16a/LL]	4c\] 4e\]	<
.	.	16g/	.	.
8G/J)	.	16f#/	.	.
.	.	16g/JJ)	.	.
(8GG/L	4GG\	16fn/ 16g/ 16bn/LK	4r	.
.	.	8g/ 8b/ 8ee/	.	.
8G/J)	.	.	.	.
.	.	16f/ 16b/ 16dd/Jk	.	.
*v	*v	*	*	*
=46	=46	=46	=46
(4C/	(8dd/L	4e\ 4b-\	.
.	8cc/J	.	>
4CC/) 4C/	(8g/L)	4B-\ 4e\	.
.	8g#/J)	.	.
*	*v	*v	*
=47	=47	=47
*^	*	*
8C/ 8A/L	4FF\	16f/ 16a/LL	mp
.	.	16g/ 16b-/	.
8C/ 8F/ 8A/J	.	16a/ 16cc/	.
.	.	[16f/ [16a/JJ	.
8CC/L	4CC\	16f/] (16a/LL]	.
.	.	16c/ 16f/ 16a/J	.
8C/ 8F/J	.	8d/ 8f/ 8a/J)	.
=48	=48	=48	=48
8FF/L	4FF\	16f/ 16a/LL	.
.	.	16c/ 16f/ 16a/	.
8C/ 8F/J	.	16c#/ 16f/ 16a/	.
.	.	[16d/ [16f/ [16a/JJ	.
8C/L	4C\	16d/] 16f/] 16a/LK]	.
.	.	8e-/ 8f/ 8a/	.
8F/ 8A/J	.	.	.
.	.	[16d/ [16f/ [16a/Jk	.
*v	*v	*	*
=49	=49	=49
*	*^	*
8BB-/L	16f/] 16a/LL]	8.d\L]	.
.	16g/	.	.
8D/J	16f/	.	.
.	[16f/ [16g/JJ	[16d\Jk	.
8BB-\ 8B-\L	8d/] 8f/] 8g/L]	4r	<
8BB-\ 8B-\J	8d/ 8e/ 8g#/J	.	.
=50	=50	=50	=50
*^	*	*	*
8A/L	4AA\ 4A\	16r	[4c#\ [4e\ [4a\	.
.	.	16a/ 16cc#/LL	.	.
8E/ 8A/J	.	16cc#/ 16ee/	.	.
.	.	[16cc#/ [16aa/JJ	.	.
8G/L	4GG\ 4G\	16cc#/] 16aa/]	16c#\] 16e\] 16a\LL]	.
.	.	16r	16c#\ 16e\J	.
8E/ 8A/J	.	8r	8c#\ 8a\J	.
*v	*v	*	*	*
*	*v	*v	*
=51	=51	=51
8FF#\ 8F#\L	8d\ 8a\L	mf
8D\ 8F#\ 8c\J	16f#\ 16cc\ 16dd\L	.
.	[16f#\ [16cc\ [16ee-\JJ	.
8DD\ 8D\L	16f#\] 16cc\] 16ee-\LL]	.
.	16dd\	.
8F#\ 8c\ 8d\J	16dd\ 16ff#\ 16bb-\	.
.	16cc\ 16ff#\ 16aa\JJ	.
=52	=52	=52
*	*^	*
8GG\ 8G\L	16ffn/ 16aa/LL	8.bn\L	.
.	16dd/	.	.
8G\ 8Bn\ 8d\J	16ff/	.	.
.	16ff/ [16gg/JJ	[16b\Jk	.
8DD/ 8D/L	16ff/ 16gg/LL]	8b\L]	.
.	16aa/J	.	.
8DD#/ 8D#/J	8ff/ 8gg/J	8b\J	.
=53	=53	=53	=53
8EE\ 8E\L	16aa/LL	8.cc\ 8.ee\L	.
.	16gg/	.	.
8B-\ 8c\ 8e\J	16ee/	.	.
.	[16ccc/JJ	[16cc\ [16ee\Jk	.
8CC\ 8C\L	16ccc/LL]	8cc\] 8ee\L]	.
.	16bb-/	.	.
8B-\ 8c\ 8e\J	16dd/	8b-\J	.
.	16ee/JJ	.	.
*	*v	*v	*
=54	=54	=54
*>C1	*>C1	*>C1
*	*^	*
8FF/ 8F/L	4r	4a\ 4cc\ [4ff\	.
16EE/ 16E/L	.	.	.
16DD/ 16D/JJ	.	.	.
4CC/ 4C/	(16ff/LL]	16a\ 16cc\LL	>
.	16f/	16A\J	.
.	16g/	8B-\ 8e\J	.
.	16g#/JJ)	.	.
*	*v	*v	*
=55:|!	=55:|!	=55:|!
*>C2	*>C2	*>C2
8FF/ 8F/L	[4a\ [4cc\ [4ff\	.
16AA/L	.	.
16C/JJ	.	.
8FF/ 8F/L	8a\] 8cc\] 8ff\]	.
8FF#/ 8F#/J	(16dd\LL	.
.	16dd#\JJ)	.
=56!|:	=56!|:	=56!|:
!! Listening to the strains of genuine negro ragtime, brokers forget their cares.
*>D	*>D	*>D
8GG\ 8G\L	16ee\LL	mf
.	16gg\ 16bb-\ 16ccc\ 16ddd\	.
8B-\ 8c\ 8e\J	16dd\	.
.	16dd#\JJ	.
8CC\ 8C\L	16ee\LL	.
.	16gg\ 16bb-\ 16ccc\ 16dddn\	.
8B-\ 8c\ 8e\J	16ddn\	.
.	16dd#\JJ	.
=57	=57	=57
8GG\ 8G\L	16ee\LK	.
.	8gg\ 8bb-\ 8ccc\ 8ddd\	.
8B-\ 8c\ 8e\J	.	.
.	[16aa\ [16bb-\ [16ccc\Jk	.
8C\ 8c\L	(16aa\] 16bb-\] 16ccc\LL]	.
.	16gg\	.
8BB-\ 8B-\J	16dd\	.
.	16ee\JJ)	.
=58	=58	=58
8AA\ 8A\L	16ff\LL	.
.	16aa\ 16ccc\ 16ddd\	.
8A\ 8c\ 8f\J	16dd\	.
.	16ee\JJ	.
8CC\ 8C\L	16ff\LL	.
.	16aa\ 16ccc\ 16ddd\	.
8A\ 8c\ 8f\J	16dd\	.
.	16ee\JJ	.
=59	=59	=59
8FF\ 8F\L	16ff\LK	.
.	8gg\ 8aa\ 8ccc\	.
8A\ 8c\ 8f\J	.	.
.	[16gg\ [16aa\ [16ccc\Jk	.
8C\ 8c\L	(16gg\] 16aa\] 16ccc\LL]	.
.	16ff\	.
8A\ 8c\ 8f\J	16ee\	.
.	16ff\JJ)	.
=60	=60	=60
8AA\ 8A\L	16ff#\LL	.
.	16aa\ 16ccc\ 16eee-\	.
8F#\ 8c\ 8d\J	16een\	.
.	16ee#\JJ	.
8D\ 8d\L	16ff#\LL	.
.	16aa\ 16ccc\ 16eee-\	.
8C\ 8c\J	16een\	.
.	16ff#\ 16aa\ 16ddd\JJ	.
=61	=61	=61
8BB-\ 8B-\L	16gg\ 16bb-\ 16ddd\LK	.
.	8aa\ 8bb-\ 8ddd\	.
8G\ 8B-\ 8d\J	.	.
.	[16aa\ [16bb-\ [16ddd\Jk	.
8GG\ 8G\L	(16aa\] 16bb-\] 16ddd\LL]	.
.	16gg\	.
8G\ 8B-\ 8d\J	16aa\	.
.	16bb-\JJ)	.
=62	=62	=62
8GG#\ 8G#\L	16bbn\LL	<
.	16ddd\ 16eee\	.
8Bn\ 8d\ 8e\J	16gg#\	.
.	16aa\JJ	.
8EE\ 8E\L	16bb\LL	.
.	16ddd\ 16eee\	.
8G#\ 8d\ 8e\J	16gg#\	.
.	16bb\ 16ddd\ 16eee\JJ	.
=63	=63	=63
8AA\ 8A\L	4aa\ 4ccc\ 4eee\	f
8A\ 8c\ 8e\J	.	.
8AA\ 8A\L	8cc\ 8dd#\ 8ff#\ 8ccc\L	.
8FF#\ 8F#\J	(16ddn\L	.
.	16dd#\JJ	.
=64	=64	=64
8GG\ 8G\L	16ee\LL)	mf
.	16gg\ 16bb-\ 16ccc\ 16ddd\	.
8B-\ 8c\ 8e\J	16dd\	.
.	16dd#\JJ	.
8CC\ 8C\L	16ee\LL	.
.	16gg\ 16bb-\ 16cccn\ 16ddd\	.
8B-\ 8c\ 8e\J	(16ddn\	.
.	16dd#\JJ)	.
=65	=65	=65
8GG\ 8G\L	16ee\LK	.
.	8gg\ 8bb-\ 8ccc\ 8ddd\	.
8B-\ 8c\ 8e\J	.	.
.	[16aa\ [16bb-\ [16ccc\Jk	.
8C\ 8c\L	16aa\] 16bb-\] 16ccc\LL]	.
.	(16gg\	.
8BB-\ 8B-\J	16dd\	.
.	16ee\JJ	.
=66	=66	=66
8AA\ 8A\L	16ff\LL)	.
.	16aa\ 16ccc\ 16ddd\	.
8A\ 8c\ 8f\J	16dd\	.
.	16ee\JJ	.
8CC\ 8C\L	16ff\LL	.
.	16aa\ 16ccc\ 16ddd\	.
8A\ 8c\ 8f\J	16dd\	.
.	16ee\JJ	.
=67	=67	=67
8FF\ 8F\L	16ff\LK	.
.	8gg\ 8aa\ 8ccc\	.
8A\ 8c\ 8f\J	.	.
.	[16gg\ [16aa\ [16ccc\Jk	.
8C\ 8c\L	(16gg\] 16aa\] 16ccc\LL]	.
.	16ff\	.
8A\ 8c\ 8f\J	16ee\	.
.	16ff\JJ)	.
=68	=68	=68
8AA\ 8A\L	16ff#\LL	.
.	16aa\ 16ccc\ 16eee-\	.
8F#\ 8c\ 8d\J	16een\	.
.	16ee#\JJ	.
8D\ 8d\L	16ff#\LL	.
.	16aa\ 16ccc\ 16eee-\	.
8C\ 8c\J	16een\	.
.	16ff#\ 16aa\ 16ddd\JJ	.
=69	=69	=69
8BB-\ 8B-\L	16gg\ 16bb-\ 16ddd\LK	.
.	8aa\ 8bb-\ 8ddd\	.
8G\ 8B-\ 8d\J	.	.
.	[16aa\ [16bb-\ [16ddd\Jk	.
8D\ 8d\L	16aa\] 16bb-\] 16ddd\LL]	.
.	16gg\ 16bb-\ 16ddd\J	.
8D-\ 8d-\J	8gg#\ 8bbn\ 8fff\J	.
=70	=70	=70
*	*^	*
8C\ 8c\L	16ccc/ 16fff/LL	4aa\	.
.	16ddd/	.	.
8A\ 8c\ 8f\J	16ccc/	.	.
.	16aa/JJ	.	.
8CC\ 8C\L	16aa/LK	16cc\ 16ee\LK	.
.	8gg/	8.b-\ 8.ee\J	.
8B-\ 8c\ 8e\J	.	.	.
.	16eee/Jk	.	.
*	*v	*v	*
=71	=71	=71
*>D1	*>D1	*>D1
8FF/ 8F/L	[4a\ [4cc\ [4ff\	.
16AA/L	.	.
16C/JJ	.	.
8FF/ 8F/L	8a\] 8cc\] 8ff\L]	.
8FF#/ 8F#/J	16dd\L	.
.	16dd#\JJ	.
=72:|!	=72:|!	=72:|!
*>D2	*>D2	*>D2
8FF/ 8F/L	4a\ 4cc\ 4ff\	.
8C/J	.	.
8FF/	8ff\ 8aa\ 8ccc\	.
8r	8r	.
==	==	==
*-	*-	*-
!!!ENC: Craig Stuart Sapp
!!!END: 2005/01/23/
